icon/gr/instagram.svg

<svg xmlns="http://www.w3.org/2000/svg" viewBox="0 0 24 24" height="1em" width="1em">
  <path d="M17.3183118,0.0772036939 C18.5358869,0.132773211 19.3775594,0.311686093 20.156489,0.614412318 C20.9357539,0.917263935 21.5259307,1.30117806 22.1124276,1.88767349 C22.6988355,2.47414659 23.0827129,3.06422396 23.3856819,3.84361655 C23.688357,4.62263666 23.8672302,5.46418415 23.9227984,6.68172489 C23.9916356,8.19170553 24,8.72394829 24,11.9999742 C24,15.2760524 23.9916355,15.808302 23.9227954,17.3182896 C23.8672306,18.5358038 23.6883589,19.3773584 23.3855877,20.1566258 C23.0826716,20.9358162 22.6987642,21.5259396 22.1124276,22.1122749 C21.5259871,22.6987804 20.9357958,23.0827198 20.1563742,23.3856323 C19.3772192,23.6883583 18.5357324,23.8672318 17.3183209,23.9227442 C15.8086874,23.9916325 15.2765626,24 12,24 C8.72343739,24 8.19131258,23.9916325 6.68172382,23.9227463 C5.46426077,23.8672314 4.62270711,23.6883498 3.84342369,23.3855738 C3.0641689,23.0827004 2.47399369,22.6987612 1.88762592,22.1123283 C1.30117312,21.525877 0.91721975,20.9357071 0.614318116,20.1563835 C0.311643016,19.3773633 0.132769821,18.5358159 0.0772038909,17.3183251 C0.0083529426,15.8092887 0,15.2774634 0,11.9999742 C0,8.7225328 0.00835296697,8.19071076 0.0772047368,6.68165632 C0.132769821,5.46418415 0.311643016,4.62263666 0.614362729,3.84350174 C0.91719061,3.06430165 1.30113536,2.4741608 1.88757245,1.88772514 C2.47399369,1.30123879 3.0641689,0.917299613 3.84345255,0.614414972 C4.62236201,0.311696581 5.46409415,0.132773979 6.68163888,0.0772035898 C8.19074867,0.00835221992 8.72252573,0 12,0 C15.2774788,0 15.8092594,0.00835235053 17.3183118,0.0772036939 Z M12,2.66666667 C8.75959504,2.66666667 8.26400713,2.67445049 6.80319929,2.74109814 C5.87614637,2.78341009 5.31952221,2.90172878 4.80947575,3.09995521 C4.37397765,3.26922052 4.09725505,3.44924273 3.77324172,3.77329203 C3.44916209,4.09737087 3.26913181,4.37408574 3.09996253,4.80937168 C2.90169965,5.31965737 2.78340891,5.87618164 2.74109927,6.80321713 C2.67445122,8.26397158 2.66666667,8.75960374 2.66666667,11.9999742 C2.66666667,15.2403924 2.67445121,15.7360281 2.74109842,17.1967643 C2.78340891,18.1238184 2.90169965,18.6803426 3.09990404,19.1904778 C3.26914133,19.6259017 3.44919889,19.9026659 3.77329519,20.2267614 C4.09725505,20.5507573 4.37397765,20.7307795 4.80932525,20.8999863 C5.31971515,21.0982887 5.87621193,21.2165784 6.80323907,21.2588497 C8.26460439,21.3255353 8.76051223,21.3333333 12,21.3333333 C15.2394878,21.3333333 15.7353956,21.3255353 17.1968056,21.2588476 C18.123775,21.216579 18.6802056,21.0982995 19.1905083,20.9000309 C19.6260288,20.7307713 19.9027426,20.5507596 20.2267583,20.226708 C20.5507492,19.9027179 20.7308046,19.6259456 20.9000375,19.1906283 C21.0983009,18.6803412 21.2165908,18.1238118 21.2588986,17.196779 C21.3255376,15.7350718 21.3333333,15.2390126 21.3333333,11.9999742 C21.3333333,8.76098665 21.3255376,8.26493375 21.2589016,6.80323567 C21.2165911,5.87618164 21.0983004,5.31965737 20.9001178,4.80957831 C20.7308131,4.37403932 20.550774,4.09729207 20.2267583,3.77324038 C19.9027658,3.44924868 19.6260264,3.26922777 19.1905015,3.09996643 C18.6803988,2.90171817 18.1238378,2.78341062 17.1967608,2.74109868 C15.7359966,2.67445057 15.2404012,2.66666667 12,2.66666667 Z M12,18.2222222 C8.56356156,18.2222222 5.77777778,15.4364384 5.77777778,12 C5.77777778,8.56356156 8.56356156,5.77777778 12,5.77777778 C15.4364384,5.77777778 18.2222222,8.56356156 18.2222222,12 C18.2222222,15.4364384 15.4364384,18.2222222 12,18.2222222 Z M12,15.5555556 C13.9636791,15.5555556 15.5555556,13.9636791 15.5555556,12 C15.5555556,10.0363209 13.9636791,8.44444444 12,8.44444444 C10.0363209,8.44444444 8.44444444,10.0363209 8.44444444,12 C8.44444444,13.9636791 10.0363209,15.5555556 12,15.5555556 Z M18.2222222,7.11111111 C17.4858426,7.11111111 16.8888889,6.51415744 16.8888889,5.77777778 C16.8888889,5.04139811 17.4858426,4.44444444 18.2222222,4.44444444 C18.9586019,4.44444444 19.5555556,5.04139811 19.5555556,5.77777778 C19.5555556,6.51415744 18.9586019,7.11111111 18.2222222,7.11111111 Z"/>
</svg>

<svg xmlns="http://www.w3.org/2000/svg" width="24" height="24"><path d="M17.318.077c1.218.056 2.06.235 2.838.537a5.36 5.36 0 0 1 1.956 1.274 5.36 5.36 0 0 1 1.274 1.956c.302.779.481 1.62.537 2.838C23.992 8.192 24 8.724 24 12s-.008 3.808-.077 5.318c-.056 1.218-.235 2.06-.537 2.839a5.36 5.36 0 0 1-1.274 1.955 5.359 5.359 0 0 1-1.956 1.274c-.779.302-1.62.481-2.838.537-1.51.069-2.041.077-5.318.077-3.277 0-3.809-.008-5.318-.077-1.218-.056-2.06-.235-2.839-.537a5.359 5.359 0 0 1-1.955-1.274 5.36 5.36 0 0 1-1.274-1.956c-.302-.779-.481-1.62-.537-2.838C.008 15.81 0 15.278 0 12c0-3.277.008-3.81.077-5.318.056-1.218.235-2.06.537-2.838a5.36 5.36 0 0 1 1.274-1.956A5.36 5.36 0 0 1 3.843.614C4.623.312 5.464.133 6.682.077 8.19.008 8.722 0 12 0c3.277 0 3.81.008 5.318.077ZM12 2.667c-3.24 0-3.736.007-5.197.074-.927.042-1.483.16-1.994.359-.435.17-.712.35-1.036.673-.324.324-.504.601-.673 1.036-.198.51-.317 1.067-.359 1.994C2.674 8.264 2.667 8.76 2.667 12s.007 3.736.074 5.197c.042.927.16 1.483.359 1.993.17.436.35.713.673 1.037.324.324.601.504 1.036.673.51.198 1.067.317 1.994.359 1.462.067 1.958.074 5.197.074 3.24 0 3.735-.007 5.197-.074.927-.042 1.483-.16 1.994-.359.435-.17.712-.35 1.036-.673.324-.324.504-.601.673-1.036.198-.51.317-1.067.359-1.994.067-1.462.074-1.958.074-5.197s-.007-3.735-.074-5.197c-.042-.927-.16-1.483-.359-1.993a2.709 2.709 0 0 0-.673-1.037A2.708 2.708 0 0 0 19.19 3.1c-.51-.198-1.067-.317-1.994-.359-1.461-.067-1.957-.074-5.197-.074Zm0 15.555a6.222 6.222 0 1 1 0-12.444 6.222 6.222 0 0 1 0 12.444Zm0-2.666a3.556 3.556 0 1 0 0-7.112 3.556 3.556 0 0 0 0 7.112Zm6.222-8.445a1.333 1.333 0 1 1 0-2.667 1.333 1.333 0 0 1 0 2.667Z"/></svg>
